X:179
T:RVW2/2/179 The Brisk Young Lively Lad
C:Mr. Baker (Snr.), Forest Green, Surrey, 21 December 1904
Z:Transcribed by Simon Furey and Lewis Jones
F:http://www.vwml.org/record/RVW2/1/179
L:1/4
Q:1/4=120
M:4/4
I:linebreak $
K:G
"^(Editorial suggestion  " G | G3/2 E/ F G | A B G d | c B (A/G/) A | G3 G |$ G3/2 E/ F G | 
w: It's|of a brisk young|live- ly lad came|out of Glouce- * ster-|shire and|all his full in-|
A B G d | c B (A/G/) A | G3 (B/c/) |$[M:6/4] d2 c B2 A |[M:4/4] B G E B/B/ | c B A A/F/ |$ 
w: ten- tion was to|court a la- * dy|fair. Her _|eyes they shone like|mor- ning dew and her|hair was lo- ver- ly|
D2 D (E/F/) | G G/E/ F G/G/ | (A2 B) d | c B (A/G/) A | G2 z |] 
w: grey. She was _|grey in her face and her|eyes _ were|fixed in mo- * des-|ty.|



